src/assets/icons/metamask.svg

<svg width="16" height="16" viewBox="0 0 16 16" fill="none" xmlns="http://www.w3.org/2000/svg">
<path d="M15.0667 0.457031L9.0625 4.89968L10.179 2.28148L15.0667 0.457031Z" fill="#E17726" stroke="#E17726" stroke-width="0.25" stroke-linecap="round" stroke-linejoin="round"/>
<path d="M1.21741 0.457031L7.1681 4.94115L6.10506 2.28148L1.21741 0.457031Z" fill="#E27625" stroke="#E27625" stroke-width="0.25" stroke-linecap="round" stroke-linejoin="round"/>
<path d="M12.9049 10.7581L11.3074 13.1986L14.7281 14.1404L15.7081 10.8114L12.9049 10.7581Z" fill="#E27625" stroke="#E27625" stroke-width="0.25" stroke-linecap="round" stroke-linejoin="round"/>
<path d="M0.581909 10.8114L1.55587 14.1404L4.9707 13.1986L3.37909 10.7581L0.581909 10.8114Z" fill="#E27625" stroke="#E27625" stroke-width="0.25" stroke-linecap="round" stroke-linejoin="round"/>
<path d="M4.78664 6.63528L3.83643 8.06879L7.22157 8.2228L7.1087 4.57983L4.78664 6.63528Z" fill="#E27625" stroke="#E27625" stroke-width="0.25" stroke-linecap="round" stroke-linejoin="round"/>
<path d="M11.4974 6.63526L9.13967 4.53833L9.0625 8.22278L12.4476 8.06877L11.4974 6.63526Z" fill="#E27625" stroke="#E27625" stroke-width="0.25" stroke-linecap="round" stroke-linejoin="round"/>
<path d="M4.9707 13.1987L7.01957 12.2095L5.25578 10.8352L4.9707 13.1987Z" fill="#E27625" stroke="#E27625" stroke-width="0.25" stroke-linecap="round" stroke-linejoin="round"/>
<path d="M9.26453 12.2095L11.3075 13.1987L11.0284 10.8352L9.26453 12.2095Z" fill="#E27625" stroke="#E27625" stroke-width="0.25" stroke-linecap="round" stroke-linejoin="round"/>
<path d="M11.3074 13.1984L9.2644 12.2092L9.43071 13.5361L9.41288 14.0988L11.3074 13.1984Z" fill="#D5BFB2" stroke="#D5BFB2" stroke-width="0.25" stroke-linecap="round" stroke-linejoin="round"/>
<path d="M4.97058 13.1984L6.87102 14.0988L6.85913 13.5361L7.0195 12.2092L4.97058 13.1984Z" fill="#D5BFB2" stroke="#D5BFB2" stroke-width="0.25" stroke-linecap="round" stroke-linejoin="round"/>
<path d="M6.90664 9.95837L5.20813 9.46082L6.40781 8.90991L6.90664 9.95837Z" fill="#233447" stroke="#233447" stroke-width="0.25" stroke-linecap="round" stroke-linejoin="round"/>
<path d="M9.3772 9.95837L9.87608 8.90991L11.0817 9.46082L9.3772 9.95837Z" fill="#233447" stroke="#233447" stroke-width="0.25" stroke-linecap="round" stroke-linejoin="round"/>
<path d="M4.97065 13.1986L5.26756 10.7581L3.37903 10.8114L4.97065 13.1986Z" fill="#CC6228" stroke="#CC6228" stroke-width="0.25" stroke-linecap="round" stroke-linejoin="round"/>
<path d="M11.0164 10.7581L11.3074 13.1986L12.9049 10.8114L11.0164 10.7581Z" fill="#CC6228" stroke="#CC6228" stroke-width="0.25" stroke-linecap="round" stroke-linejoin="round"/>
<path d="M12.4476 8.06885L9.0625 8.22286L9.37724 9.95845L9.87612 8.90999L11.0817 9.46089L12.4476 8.06885Z" fill="#CC6228" stroke="#CC6228" stroke-width="0.25" stroke-linecap="round" stroke-linejoin="round"/>
<path d="M5.20817 9.46089L6.4078 8.90999L6.90668 9.95845L7.22142 8.22286L3.8363 8.06885L5.20817 9.46089Z" fill="#CC6228" stroke="#CC6228" stroke-width="0.25" stroke-linecap="round" stroke-linejoin="round"/>
<path d="M3.83643 8.06885L5.25581 10.8352L5.20831 9.46089L3.83643 8.06885Z" fill="#E27525" stroke="#E27525" stroke-width="0.25" stroke-linecap="round" stroke-linejoin="round"/>
<path d="M11.0818 9.46089L11.0283 10.8352L12.4477 8.06885L11.0818 9.46089Z" fill="#E27525" stroke="#E27525" stroke-width="0.25" stroke-linecap="round" stroke-linejoin="round"/>
<path d="M7.22153 8.2229L6.90674 9.95853L7.30464 12.008L7.39373 9.30692L7.22153 8.2229Z" fill="#E27525" stroke="#E27525" stroke-width="0.25" stroke-linecap="round" stroke-linejoin="round"/>
<path d="M9.06243 8.2229L8.89612 9.30103L8.97927 12.008L9.37717 9.95853L9.06243 8.2229Z" fill="#E27525" stroke="#E27525" stroke-width="0.25" stroke-linecap="round" stroke-linejoin="round"/>
<path d="M9.37727 9.95849L8.97937 12.008L9.26444 12.2095L11.0283 10.8352L11.0817 9.46094L9.37727 9.95849Z" fill="#F5841F" stroke="#F5841F" stroke-width="0.25" stroke-linecap="round" stroke-linejoin="round"/>
<path d="M5.20813 9.46094L5.25567 10.8352L7.01947 12.2095L7.30454 12.008L6.90664 9.95849L5.20813 9.46094Z" fill="#F5841F" stroke="#F5841F" stroke-width="0.25" stroke-linecap="round" stroke-linejoin="round"/>
<path d="M9.41282 14.0989L9.43065 13.5361L9.27623 13.4058H7.00761L6.85913 13.5361L6.87102 14.0989L4.97058 13.1985L5.63577 13.7434L6.98384 14.6735H9.29405L10.6481 13.7434L11.3073 13.1985L9.41282 14.0989Z" fill="#C0AC9D" stroke="#C0AC9D" stroke-width="0.25" stroke-linecap="round" stroke-linejoin="round"/>
<path d="M9.26439 12.2095L8.97931 12.0081H7.30457L7.0195 12.2095L6.85913 13.5363L7.00761 13.406H9.27623L9.43065 13.5363L9.26439 12.2095Z" fill="#161616" stroke="#161616" stroke-width="0.25" stroke-linecap="round" stroke-linejoin="round"/>
<path d="M15.322 5.18992L15.8268 2.73759L15.0666 0.457031L9.2644 4.75161L11.4974 6.63527L14.6509 7.55344L15.3457 6.74192L15.0428 6.52272L15.5239 6.08441L15.1557 5.80007L15.6367 5.4328L15.322 5.18992Z" fill="#763E1A" stroke="#763E1A" stroke-width="0.25" stroke-linecap="round" stroke-linejoin="round"/>
<path d="M0.457153 2.73759L0.967892 5.18992L0.641258 5.4328L1.12824 5.80007L0.760033 6.08441L1.24108 6.52272L0.938196 6.74192L1.63304 7.55344L4.78657 6.63527L7.01953 4.75161L1.21732 0.457031L0.457153 2.73759Z" fill="#763E1A" stroke="#763E1A" stroke-width="0.25" stroke-linecap="round" stroke-linejoin="round"/>
<path d="M14.651 7.55342L11.4975 6.63525L12.4477 8.06876L11.0283 10.8351L12.905 10.8113H15.7081L14.651 7.55342Z" fill="#F5841F" stroke="#F5841F" stroke-width="0.25" stroke-linecap="round" stroke-linejoin="round"/>
<path d="M4.78646 6.63525L1.63296 7.55342L0.581787 10.8113H3.37897L5.25562 10.8351L3.83626 8.06876L4.78646 6.63525Z" fill="#F5841F" stroke="#F5841F" stroke-width="0.25" stroke-linecap="round" stroke-linejoin="round"/>
<path d="M9.06247 8.2228L9.26439 4.75162L10.179 2.28149H6.10498L7.01954 4.75162L7.22146 8.2228L7.29867 9.31272L7.30461 12.0079H8.97936L8.9853 9.31272L9.06247 8.2228Z" fill="#F5841F" stroke="#F5841F" stroke-width="0.25" stroke-linecap="round" stroke-linejoin="round"/>
</svg>

<svg width="16" height="16" fill="none" xmlns="http://www.w3.org/2000/svg"><path d="M15.067.457 9.062 4.9 10.18 2.28 15.067.457Z" fill="#E17726" stroke="#E17726" stroke-width=".25" stroke-linecap="round" stroke-linejoin="round"/><path d="m1.217.457 5.951 4.484-1.063-2.66L1.217.457ZM12.905 10.758l-1.598 2.44 3.421.942.98-3.329-2.803-.053ZM.582 10.811l.974 3.33 3.415-.942-1.592-2.44-2.797.052Z" fill="#E27625" stroke="#E27625" stroke-width=".25" stroke-linecap="round" stroke-linejoin="round"/><path d="m4.787 6.635-.95 1.434 3.385.154-.113-3.643-2.322 2.055ZM11.497 6.635 9.14 4.538l-.078 3.685 3.386-.154-.95-1.434ZM4.97 13.199l2.05-.99-1.764-1.374L4.97 13.2ZM9.265 12.21l2.042.989-.279-2.364-1.763 1.374Z" fill="#E27625" stroke="#E27625" stroke-width=".25" stroke-linecap="round" stroke-linejoin="round"/><path d="m11.307 13.198-2.043-.989.167 1.327-.018.563 1.894-.9ZM4.97 13.198l1.901.9-.012-.562.16-1.327-2.048.99Z" fill="#D5BFB2" stroke="#D5BFB2" stroke-width=".25" stroke-linecap="round" stroke-linejoin="round"/><path d="m6.907 9.958-1.699-.497 1.2-.551.499 1.048ZM9.377 9.958l.5-1.048 1.205.55-1.705.498Z" fill="#233447" stroke="#233447" stroke-width=".25" stroke-linecap="round" stroke-linejoin="round"/><path d="m4.97 13.199.298-2.44-1.889.052L4.971 13.2ZM11.016 10.758l.291 2.44 1.598-2.387-1.889-.053ZM12.448 8.069l-3.386.154.315 1.735.5-1.048 1.205.55 1.366-1.391ZM5.208 9.46l1.2-.55.499 1.048.314-1.735-3.385-.154L5.208 9.46Z" fill="#CC6228" stroke="#CC6228" stroke-width=".25" stroke-linecap="round" stroke-linejoin="round"/><path d="m3.836 8.069 1.42 2.766-.048-1.374-1.372-1.392ZM11.082 9.46l-.054 1.375 1.42-2.766-1.366 1.392ZM7.222 8.223l-.315 1.736.398 2.049.089-2.701-.172-1.084ZM9.062 8.223 8.896 9.3l.083 2.707.398-2.05-.315-1.735Z" fill="#E27525" stroke="#E27525" stroke-width=".25" stroke-linecap="round" stroke-linejoin="round"/><path d="m9.377 9.958-.398 2.05.285.202 1.764-1.375.054-1.374-1.705.497ZM5.208 9.46l.048 1.375 1.763 1.374.286-.201-.398-2.05-1.699-.497Z" fill="#F5841F" stroke="#F5841F" stroke-width=".25" stroke-linecap="round" stroke-linejoin="round"/><path d="m9.413 14.099.018-.563-.155-.13H7.008l-.149.13.012.563-1.9-.9.665.544 1.348.93h2.31l1.354-.93.66-.545-1.895.9Z" fill="#C0AC9D" stroke="#C0AC9D" stroke-width=".25" stroke-linecap="round" stroke-linejoin="round"/><path d="m9.264 12.21-.285-.202H7.305l-.285.202-.16 1.326.148-.13h2.268l.155.13-.167-1.326Z" fill="#161616" stroke="#161616" stroke-width=".25" stroke-linecap="round" stroke-linejoin="round"/><path d="m15.322 5.19.505-2.452-.76-2.281-5.803 4.295 2.233 1.883 3.154.918.695-.811-.303-.22.48-.438-.367-.284.48-.367-.314-.243ZM.457 2.738l.51 2.452-.326.243.487.367-.368.284.481.439-.303.219.695.811 3.154-.918L7.02 4.752 1.217.457l-.76 2.28Z" fill="#763E1A" stroke="#763E1A" stroke-width=".25" stroke-linecap="round" stroke-linejoin="round"/><path d="m14.651 7.553-3.153-.918.95 1.434-1.42 2.766 1.877-.024h2.803l-1.057-3.258ZM4.786 6.635l-3.153.918-1.051 3.258h2.797l1.877.024-1.42-2.766.95-1.434ZM9.062 8.223l.202-3.471.915-2.47H6.105l.915 2.47.201 3.47.078 1.09.006 2.696h1.674l.006-2.695.077-1.09Z" fill="#F5841F" stroke="#F5841F" stroke-width=".25" stroke-linecap="round" stroke-linejoin="round"/></svg>
